assets/img/footer-logo.svg

<svg width="263" height="47" viewBox="0 0 263 47" fill="none" xmlns="http://www.w3.org/2000/svg">
<path d="M9.17359 37.5356L9.62024 34.6696C6.71127 34.4164 4.37492 33.4956 2.61121 31.9072C0.870403 30.2957 0 28.1088 0 25.3463C0 23.2285 0.46956 21.2948 1.40868 19.5452C2.3707 17.7726 3.80229 16.3569 5.70343 15.2979C7.62748 14.239 10.0325 13.7095 12.9186 13.7095L13.3309 11.0852H19.6528L19.2061 13.9167C22.1151 14.1699 24.44 15.0908 26.1808 16.6792C27.9445 18.2676 28.8264 20.4545 28.8264 23.24C28.8264 25.3579 28.3454 27.3031 27.3833 29.0756C26.4442 30.8252 25.0126 32.2294 23.0886 33.2884C21.1874 34.3473 18.7824 34.8768 15.8734 34.8768L15.4611 37.5356H9.17359ZM6.39059 25.1392C6.39059 26.5664 6.67691 27.6944 7.24954 28.5232C7.82218 29.3289 8.87582 29.8123 10.4105 29.9734L12.2315 18.3712C10.8113 18.4402 9.67751 18.797 8.83001 19.4416C7.98251 20.0632 7.36407 20.8804 6.97468 21.8933C6.58529 22.8832 6.39059 23.9651 6.39059 25.1392ZM22.4358 23.4472C22.4358 21.9969 22.1495 20.8689 21.5768 20.0632C21.0042 19.2344 19.9506 18.7395 18.4159 18.5783L16.5606 30.2152C17.9807 30.1461 19.1145 29.8008 19.962 29.1792C20.8324 28.5347 21.4623 27.7174 21.8517 26.7276C22.2411 25.7147 22.4358 24.6212 22.4358 23.4472Z" fill="#0F2D79"/>
<path d="M30.6694 36.5688L34.5175 12.2247H40.3927L38.2625 25.9334L51.4903 12.2247H56.1287L52.2806 36.5688H46.4397L48.6042 22.7911L35.3077 36.5688H30.6694Z" fill="#0F2D79"/>
<path d="M56.7063 36.5688L60.5544 12.2247H66.8763L65.3989 21.617H75.3627L76.8745 12.2247H83.162L79.3139 36.5688H73.0264L74.5381 26.8312H64.5743L63.0282 36.5688H56.7063Z" fill="#0F2D79"/>
<path d="M153.682 36.9486C151.437 36.9486 149.421 36.5343 147.634 35.7055C145.871 34.8538 144.474 33.5992 143.443 31.9417C142.435 30.2612 141.931 28.2009 141.931 25.7607C141.931 23.804 142.229 21.9854 142.824 20.3049C143.42 18.6244 144.29 17.1511 145.436 15.885C146.604 14.6188 148.035 13.629 149.73 12.9153C151.448 12.2017 153.418 11.8449 155.64 11.8449C157.289 11.8449 158.847 12.0981 160.313 12.6046C161.779 13.088 162.935 13.7211 163.783 14.5037L161.412 19.4762C159.557 18.0719 157.587 17.3698 155.502 17.3698C153.968 17.3698 152.685 17.7381 151.654 18.4748C150.647 19.1884 149.879 20.1668 149.352 21.4099C148.848 22.63 148.597 23.9997 148.597 25.519C148.597 27.5448 149.066 29.0411 150.005 30.008C150.944 30.9518 152.422 31.4237 154.437 31.4237C155.331 31.4237 156.258 31.2741 157.22 30.9748C158.182 30.6756 159.19 30.1806 160.244 29.49L161.824 34.497C161.183 35.0034 160.404 35.4408 159.488 35.8091C158.572 36.1775 157.61 36.4537 156.602 36.6379C155.594 36.8451 154.621 36.9486 153.682 36.9486Z" fill="#0F2D79"/>
<path d="M169.581 36.5688L172.604 17.4043H164.908L165.733 12.2247H187.447L186.623 17.4043H178.926L175.903 36.5688H169.581Z" fill="#0F2D79"/>
<path d="M185.989 36.5688L189.837 12.2247H200.076C203.007 12.2247 205.195 12.8578 206.638 14.1239C208.104 15.367 208.837 17.082 208.837 19.269C208.837 22.1235 207.966 24.322 206.226 25.8643C204.508 27.4067 202.011 28.1779 198.736 28.1779H193.651L192.311 36.5688H185.989ZM194.406 23.3091H198.976C201.541 23.3091 202.824 22.1465 202.824 19.8215C202.824 18.0028 201.622 17.0935 199.217 17.0935H195.369L194.406 23.3091Z" fill="#0F2D79"/>
<path d="M221.619 36.9486C219.305 36.9486 217.289 36.5228 215.572 35.671C213.854 34.7962 212.514 33.5531 211.552 31.9417C210.613 30.3073 210.143 28.339 210.143 26.037C210.143 23.2285 210.693 20.7653 211.792 18.6474C212.892 16.5065 214.426 14.8375 216.396 13.6405C218.389 12.4434 220.691 11.8449 223.302 11.8449C225.616 11.8449 227.631 12.2823 229.349 13.1571C231.067 14.0088 232.396 15.2519 233.335 16.8864C234.297 18.4978 234.778 20.443 234.778 22.722C234.778 25.5535 234.228 28.0397 233.128 30.1806C232.029 32.2985 230.494 33.956 228.525 35.1531C226.555 36.3501 224.253 36.9486 221.619 36.9486ZM221.687 31.6309C223.062 31.6309 224.23 31.2626 225.192 30.526C226.177 29.7893 226.933 28.7649 227.459 27.4527C227.986 26.1175 228.25 24.5867 228.25 22.8602C228.25 20.9264 227.792 19.4992 226.875 18.5784C225.982 17.6345 224.757 17.1626 223.199 17.1626C221.848 17.1626 220.679 17.5309 219.695 18.2676C218.732 19.0042 217.988 20.0402 217.461 21.3753C216.957 22.6875 216.705 24.2069 216.705 25.9334C216.705 27.8671 217.152 29.3059 218.045 30.2497C218.939 31.1705 220.153 31.6309 221.687 31.6309Z" fill="#0F2D79"/>
<path d="M236.586 36.5688L240.434 12.2247H246.31L244.179 25.9334L257.407 12.2247H262.046L258.198 36.5688H252.357L254.521 22.7911L241.225 36.5688H236.586ZM251.292 10.3255C249.826 10.3255 248.623 10.0953 247.684 9.63493C246.745 9.17452 246.012 8.55297 245.485 7.77028C244.958 6.98758 244.615 6.11281 244.454 5.14595L247.409 4.21362C247.73 5.27256 248.211 6.03224 248.852 6.49264C249.493 6.95305 250.387 7.18326 251.532 7.18326C252.7 7.18326 253.639 6.93003 254.349 6.42358C255.082 5.89411 255.655 5.16897 256.067 4.24815L258.747 5.14595C258.312 6.68832 257.442 7.94293 256.136 8.90979C254.83 9.85362 253.216 10.3255 251.292 10.3255Z" fill="#0F2D79"/>
<path d="M112.686 2.03833C100.892 2.03833 91.3312 11.6585 91.3312 23.5255C91.3312 27.8032 92.5735 31.7889 94.7148 35.1373C94.7998 35.2702 94.985 35.2886 95.0958 35.1766L112.51 17.5819C112.607 17.4838 112.765 17.4838 112.862 17.5818L120.85 25.6493L123.348 28.1731L124.853 29.6975L130.276 35.1766C130.386 35.2886 130.572 35.2702 130.657 35.1373C132.798 31.7889 134.04 27.8032 134.04 23.5255C134.04 11.6585 124.479 2.03833 112.686 2.03833Z" fill="#FF6433"/>
<path d="M94.9524 35.5284C98.8011 41.2208 105.307 44.9618 112.686 44.9618C120.064 44.9618 126.57 41.2208 130.419 35.5284C130.485 35.4303 130.472 35.2989 130.389 35.2149L124.881 29.6732L123.373 28.1514L120.869 25.6319L112.862 17.5785C112.765 17.4807 112.607 17.4807 112.509 17.5785L94.9826 35.2149C94.8992 35.2989 94.8861 35.4303 94.9524 35.5284Z" fill="white"/>
<path fill-rule="evenodd" clip-rule="evenodd" d="M112.686 4C101.97 4 93.2832 12.7304 93.2832 23.5C93.2832 26.5943 93.999 29.5169 95.2731 32.1132L112.685 14.5411L118.875 20.7842V16.875H125.357V27.3259L126.285 28.2644L130.098 32.1132C131.372 29.5169 132.088 26.5943 132.088 23.5C132.088 12.7304 123.401 4 112.686 4ZM127.917 35.5808L123.463 31.0851L112.686 20.2089L97.454 35.5808C101.01 40.1031 106.512 43 112.686 43C118.86 43 124.361 40.1031 127.917 35.5808ZM89.3032 23.5C89.3032 10.5213 99.7719 0 112.686 0C125.6 0 136.068 10.5213 136.068 23.5C136.068 28.2954 134.637 32.7609 132.18 36.4811C127.996 42.8165 120.827 47 112.686 47C104.544 47 97.3758 42.8165 93.1915 36.4811C90.7344 32.7609 89.3032 28.2954 89.3032 23.5Z" fill="#0F2D79"/>
</svg>

<svg width="263" height="47" viewBox="0 0 263 47" fill="none" xmlns="http://www.w3.org/2000/svg"><path d="M9.174 37.536l.446-2.866c-2.909-.254-5.245-1.174-7.009-2.763C.871 30.296 0 28.11 0 25.347c0-2.119.47-4.052 1.409-5.802.962-1.772 2.393-3.188 4.294-4.247 1.924-1.059 4.33-1.588 7.216-1.588l.412-2.625h6.322l-.447 2.832c2.91.253 5.234 1.174 6.975 2.762 1.764 1.589 2.645 3.776 2.645 6.561 0 2.118-.48 4.063-1.443 5.836-.939 1.75-2.37 3.153-4.294 4.212-1.902 1.06-4.307 1.589-7.216 1.589l-.412 2.659H9.174zM6.39 25.139c0 1.427.286 2.555.859 3.384.572.806 1.626 1.29 3.16 1.45l1.822-11.602c-1.42.07-2.554.426-3.402 1.07a5.352 5.352 0 00-1.855 2.452c-.39.99-.584 2.072-.584 3.246zm16.045-1.692c0-1.45-.287-2.578-.86-3.384-.572-.829-1.625-1.323-3.16-1.485L16.56 30.215c1.42-.069 2.553-.414 3.401-1.036a5.508 5.508 0 001.89-2.451c.39-1.013.584-2.107.584-3.28zm8.235 13.122l3.847-24.344h5.876l-2.13 13.708L51.49 12.225h4.639L52.28 36.569h-5.84l2.164-13.778L35.308 36.57h-4.639zm26.036 0l3.848-24.344h6.322L65.4 21.617h9.964l1.511-9.392h6.288l-3.848 24.344h-6.288l1.512-9.738h-9.964l-1.546 9.738h-6.322zm96.976.38c-2.245 0-4.261-.415-6.048-1.243a9.92 9.92 0 01-4.191-3.764c-1.008-1.68-1.512-3.741-1.512-6.181 0-1.957.298-3.776.893-5.456.596-1.68 1.466-3.154 2.612-4.42 1.168-1.266 2.599-2.256 4.294-2.97 1.718-.713 3.688-1.07 5.91-1.07 1.649 0 3.207.253 4.673.76 1.466.483 2.622 1.116 3.47 1.899l-2.371 4.972c-1.855-1.404-3.825-2.106-5.91-2.106-1.534 0-2.817.368-3.848 1.105-1.007.713-1.775 1.692-2.302 2.935-.504 1.22-.755 2.59-.755 4.109 0 2.026.469 3.522 1.408 4.489.939.944 2.417 1.416 4.432 1.416.894 0 1.821-.15 2.783-.45.962-.298 1.97-.793 3.024-1.484l1.58 5.007c-.641.506-1.42.944-2.336 1.312-.916.369-1.878.645-2.886.829-1.008.207-1.981.31-2.92.31zm15.899-.38l3.023-19.165h-7.696l.825-5.18h21.714l-.824 5.18h-7.697l-3.023 19.165h-6.322zm16.408 0l3.848-24.344h10.239c2.931 0 5.119.633 6.562 1.899 1.466 1.243 2.199 2.958 2.199 5.145 0 2.855-.871 5.053-2.611 6.595-1.718 1.543-4.215 2.314-7.49 2.314h-5.085l-1.34 8.39h-6.322zm8.417-13.26h4.57c2.565 0 3.848-1.163 3.848-3.488 0-1.818-1.202-2.728-3.607-2.728h-3.848l-.963 6.216zm27.213 13.64c-2.314 0-4.33-.426-6.047-1.278-1.718-.875-3.058-2.118-4.02-3.73-.939-1.634-1.409-3.602-1.409-5.904 0-2.808.55-5.272 1.649-7.39 1.1-2.14 2.634-3.81 4.604-5.006 1.993-1.198 4.295-1.796 6.906-1.796 2.314 0 4.329.437 6.047 1.312 1.718.852 3.047 2.095 3.986 3.73.962 1.61 1.443 3.556 1.443 5.835 0 2.831-.55 5.318-1.65 7.459-1.099 2.117-2.634 3.775-4.603 4.972-1.97 1.197-4.272 1.796-6.906 1.796zm.068-5.318c1.375 0 2.543-.368 3.505-1.105.985-.737 1.741-1.761 2.267-3.073.527-1.335.791-2.866.791-4.593 0-1.934-.458-3.36-1.375-4.282-.893-.944-2.118-1.415-3.676-1.415-1.351 0-2.52.368-3.504 1.105-.963.736-1.707 1.772-2.234 3.107-.504 1.313-.756 2.832-.756 4.558 0 1.934.447 3.373 1.34 4.317.894.92 2.108 1.38 3.642 1.38zm14.899 4.938l3.848-24.344h5.876l-2.131 13.708 13.228-13.708h4.639l-3.848 24.344h-5.841l2.164-13.778-13.296 13.778h-4.639zm14.706-26.244c-1.466 0-2.669-.23-3.608-.69-.939-.46-1.672-1.082-2.199-1.865a6.571 6.571 0 01-1.031-2.624l2.955-.932c.321 1.059.802 1.818 1.443 2.279.641.46 1.535.69 2.68.69 1.168 0 2.107-.253 2.817-.76.733-.529 1.306-1.254 1.718-2.175l2.68.898c-.435 1.542-1.305 2.797-2.611 3.764-1.306.944-2.92 1.415-4.844 1.415z" fill="#0F2D79"/><path d="M112.686 2.038c-11.794 0-21.355 9.62-21.355 21.488 0 4.277 1.242 8.263 3.384 11.611.085.133.27.152.38.04l17.415-17.595a.247.247 0 01.352 0l7.988 8.067 2.498 2.524 1.505 1.525 5.423 5.479c.11.112.296.093.381-.04a21.486 21.486 0 003.383-11.611c0-11.867-9.561-21.488-21.354-21.488z" fill="#FF6433"/><path d="M94.952 35.528c3.85 5.693 10.355 9.434 17.734 9.434 7.378 0 13.884-3.741 17.733-9.434a.249.249 0 00-.03-.313l-5.508-5.542-1.508-1.522-2.504-2.52-8.007-8.053a.249.249 0 00-.353 0L94.983 35.215a.248.248 0 00-.03.313z" fill="#fff"/><path fill-rule="evenodd" clip-rule="evenodd" d="M112.686 4c-10.716 0-19.403 8.73-19.403 19.5 0 3.094.716 6.017 1.99 8.613l17.412-17.572 6.19 6.243v-3.909h6.482v10.45l.928.94 3.813 3.848a19.496 19.496 0 001.99-8.613c0-10.77-8.687-19.5-19.402-19.5zm15.231 31.58l-4.454-4.495-10.777-10.876L97.454 35.58c3.556 4.523 9.058 7.42 15.232 7.42 6.174 0 11.675-2.897 15.231-7.42zM89.303 23.5c0-12.979 10.469-23.5 23.383-23.5s23.382 10.521 23.382 23.5c0 4.795-1.431 9.26-3.888 12.981C127.996 42.816 120.827 47 112.686 47c-8.142 0-15.31-4.184-19.495-10.519A23.483 23.483 0 0189.303 23.5z" fill="#0F2D79"/></svg>
